icons/core/folder-export.svg

<svg width="32" height="32" viewBox="0 0 32 32" xmlns="http://www.w3.org/2000/svg"><path fill-rule="evenodd" clip-rule="evenodd" d="M4.00024 4.00015C2.89567 4.00015 2.00024 4.89559 2.00024 6.00017L2.00038 26C2.00039 27.1046 2.89582 28 4.00038 28L25.586 28L24.2926 29.2934L25.7069 30.7076L30.7071 25.7074L31.4142 25.0003L30.7071 24.2931L30.0003 23.5864V10.0002C30.0003 8.89561 29.1049 8.00018 28.0003 8.00018H15.4147L12.0005 4.58594C11.6254 4.21087 11.1167 4.00015 10.5863 4.00015H4.00024ZM27.5858 26.0002L25.586 28H11.9999V26H4.00038L4.00024 6.00015H10.5863L14.0005 9.41439C14.3756 9.78947 14.8843 10.0002 15.4147 10.0002H28.0003V17H29.9999V23.586L25.7069 19.2929L24.2926 20.7071L27.5858 24.0002H15.9998V26.0002H27.5858Z"/></svg>

<svg viewBox="0 0 32 32" xmlns="http://www.w3.org/2000/svg"><path fill-rule="evenodd" d="M4 4a2 2 0 00-2 2v20a2 2 0 002 2h21.586l-1.293 1.293 1.414 1.415 5-5 .707-.708-.707-.707-.707-.707V10a2 2 0 00-2-2H15.415L12 4.586A2 2 0 0010.585 4H4zm23.586 22l-2 2H12v-2H4V6h6.586l3.415 3.414a2 2 0 001.414.586H28v7h2v6.586l-4.293-4.293-1.414 1.414L27.586 24H16v2h11.586z"/></svg>
